X:151
T:Reel 151
L:1/8
M: 4/4
K: D Major
fafdeBBd|ABdefee2|faafbfaf|defde2de:||:fbb2fabd'|bd'bafede|fab2afbf|afdefdd2:|.abc